X:101
T:The Fyrish reel
R:Reel
C:David Gordon
S:The Cast
S:IrTrad
Z:Transcription:Juergen.Gier,chords:Mike Long
M:C|
L:1/8
K:D
"Bm"B2Bc dcde|"D"fgaf gfed|"A"cA~A2 cAeA|"G"faec dcBA|\
"Bm"B2Bc dcde|"D"fbbf afef|
"A"bfaf efae|[1 "G"ceae cBBA:|[2 "G"ceae cBBc\
|:"D"d2de fefg|aAgA fedc|"A"A2AB cBcd|
"G"eaec dcBA|\
"Bm"B2Bc dcde|"D"fbbf afef|"A"bfaf efae|[1 "G"ceae cBBc:|[2 "G"ceae cBBA|]
